assets/favicon.svg

<svg xmlns="http://www.w3.org/2000/svg" xml:space="preserve" style="fill-rule:evenodd;clip-rule:evenodd;stroke-linecap:round;stroke-linejoin:round;stroke-miterlimit:1.5" viewBox="0 0 1000 1000"><path d="M525 25.766v-.118C775.558 38.667 975 246.226 975 500c0 262.16-212.84 475-475 475-262.16 0-475-212.84-475-475C25 246.226 224.442 38.667 475 25.648v.118a408.08 408.08 0 0 1 50 0Z" style="fill:#ebebeb;stroke:#000;stroke-width:73.79px" transform="matrix(.94939 0 0 .94783 25.305 26.083)"/><path d="M475 125V25.232c16.665-.31 33.335-.31 50 0V125h-50Zm0 849.768V875h50v99.768c-16.665.31-33.335.31-50 0ZM25.232 475.324H125v50H25.232c-.31-16.665-.31-33.335 0-50ZM974.768 525H875v-50h99.768c.31 16.665.31 33.335 0 50Z" style="fill:#020202;fill-opacity:.77;stroke:#000;stroke-width:.21px" transform="matrix(.89695 0 0 .89548 51.525 52.26)"/><path d="M475 125V25.232c16.665-.31 33.335-.31 50 0V125h-50Zm0 849.768V875h50v99.768c-16.665.31-33.335.31-50 0ZM25.232 475.324H125v50H25.232c-.31-16.665-.31-33.335 0-50ZM974.768 525H875v-50h99.768c.31 16.665.31 33.335 0 50Z" style="fill:#020202;fill-opacity:.77;stroke:#000;stroke-width:.21px" transform="matrix(.78407 .43561 -.4349 .78278 308.852 -109.198)"/><path d="M475 125V25.232c16.665-.31 33.335-.31 50 0V125h-50Zm0 849.768V875h50v99.768c-16.665.31-33.335.31-50 0ZM25.232 475.324H125v50H25.232c-.31-16.665-.31-33.335 0-50ZM974.768 525H875v-50h99.768c.31 16.665.31 33.335 0 50Z" style="fill:#020202;fill-opacity:.77;stroke:#000;stroke-width:.21px" transform="matrix(.46736 .76557 -.76431 .4666 627.213 -117.999)"/><path d="M525 25.766v-.118C775.558 38.667 975 246.226 975 500c0 262.16-212.84 475-475 475-262.16 0-475-212.84-475-475C25 246.226 224.442 38.667 475 25.648v.118a408.08 408.08 0 0 1 50 0Z" style="fill:none;stroke:#000;stroke-width:73.79px" transform="matrix(.94939 0 0 .94783 25.305 26.083)"/><path d="M12.459 388.234h62.585v201.93H12.459z" style="stroke:#000;stroke-width:.64px" transform="matrix(1.07583 -.4461 .72485 1.74807 26.525 -506.932)"/><path d="M12.459 388.234h62.585v201.93H12.459z" style="stroke:#000;stroke-width:.88px" transform="matrix(.94455 -.68135 .65009 .90121 219.209 201.251)"/><circle cx="500" cy="500.324" r="39.676" style="fill:#b6253a;stroke:#000;stroke-width:.21px" transform="matrix(1.29984 0 0 1.29771 -151.145 -149.278)"/></svg>

<?xml version="1.0" encoding="UTF-8" standalone="no"?>
<!DOCTYPE svg PUBLIC "-//W3C//DTD SVG 1.1//EN" "http://www.w3.org/Graphics/SVG/1.1/DTD/svg11.dtd">
<svg width="100%" height="100%" viewBox="0 0 1000 1000" version="1.1" xmlns="http://www.w3.org/2000/svg" xmlns:xlink="http://www.w3.org/1999/xlink" xml:space="preserve" xmlns:serif="http://www.serif.com/" style="fill-rule:evenodd;clip-rule:evenodd;stroke-linecap:round;stroke-linejoin:round;stroke-miterlimit:1.5;">
    <g transform="matrix(0.949389,0,0,0.947834,25.3054,26.0828)">
        <path d="M525,25.766L525,25.648C775.558,38.667 975,246.226 975,500C975,762.16 762.16,975 500,975C237.84,975 25,762.16 25,500C25,246.226 224.442,38.667 475,25.648L475,25.766C491.651,24.744 508.349,24.744 525,25.766Z" style="fill:rgb(235,235,235);stroke:black;stroke-width:73.79px;"/>
    </g>
    <g transform="matrix(0.896949,0,0,0.89548,51.5253,52.2598)">
        <path d="M475,125L475,25.232C491.665,24.922 508.335,24.922 525,25.232L525,125L475,125ZM475,974.768L475,875L525,875L525,974.768C508.335,975.078 491.665,975.078 475,974.768ZM25.232,475.324L125,475.324L125,525.324L25.232,525.324C24.922,508.659 24.922,491.989 25.232,475.324ZM974.768,525C974.768,525 875,525 875,525L875,475L974.768,475C975.078,491.665 975.078,508.335 974.768,525Z" style="fill:rgb(2,2,2);fill-opacity:0.77;stroke:black;stroke-width:0.21px;"/>
    </g>
    <g transform="matrix(0.784066,0.435614,-0.4349,0.782782,308.852,-109.198)">
        <path d="M475,125L475,25.232C491.665,24.922 508.335,24.922 525,25.232L525,125L475,125ZM475,974.768L475,875L525,875L525,974.768C508.335,975.078 491.665,975.078 475,974.768ZM25.232,475.324L125,475.324L125,525.324L25.232,525.324C24.922,508.659 24.922,491.989 25.232,475.324ZM974.768,525C974.768,525 875,525 875,525L875,475L974.768,475C975.078,491.665 975.078,508.335 974.768,525Z" style="fill:rgb(2,2,2);fill-opacity:0.77;stroke:black;stroke-width:0.21px;"/>
    </g>
    <g transform="matrix(0.467361,0.765566,-0.764312,0.466596,627.213,-117.999)">
        <path d="M475,125L475,25.232C491.665,24.922 508.335,24.922 525,25.232L525,125L475,125ZM475,974.768L475,875L525,875L525,974.768C508.335,975.078 491.665,975.078 475,974.768ZM25.232,475.324L125,475.324L125,525.324L25.232,525.324C24.922,508.659 24.922,491.989 25.232,475.324ZM974.768,525C974.768,525 875,525 875,525L875,475L974.768,475C975.078,491.665 975.078,508.335 974.768,525Z" style="fill:rgb(2,2,2);fill-opacity:0.77;stroke:black;stroke-width:0.21px;"/>
    </g>
    <g transform="matrix(0.949389,0,0,0.947834,25.3054,26.0828)">
        <path d="M525,25.766L525,25.648C775.558,38.667 975,246.226 975,500C975,762.16 762.16,975 500,975C237.84,975 25,762.16 25,500C25,246.226 224.442,38.667 475,25.648L475,25.766C491.651,24.744 508.349,24.744 525,25.766Z" style="fill:none;stroke:black;stroke-width:73.79px;"/>
    </g>
    <g transform="matrix(1.07583,-0.446101,0.724848,1.74807,26.525,-506.932)">
        <rect x="12.459" y="388.234" width="62.585" height="201.93" style="stroke:black;stroke-width:0.64px;"/>
    </g>
    <g transform="matrix(0.944554,-0.681354,0.650088,0.90121,219.209,201.251)">
        <rect x="12.459" y="388.234" width="62.585" height="201.93" style="stroke:black;stroke-width:0.88px;"/>
    </g>
    <g transform="matrix(1.29984,0,0,1.29771,-151.145,-149.278)">
        <circle cx="500" cy="500.324" r="39.676" style="fill:rgb(182,37,58);stroke:black;stroke-width:0.21px;"/>
    </g>
</svg>
